src/assets/img/materialDesign.svg

<svg width="60" height="60" viewBox="0 0 60 60" fill="none" xmlns="http://www.w3.org/2000/svg">
<path d="M7.9 9.7998V50.2998C3 44.8998 0 37.7998 0 29.9998C0 22.1998 3 15.0998 7.9 9.7998Z" fill="#930f50"/>
<path d="M11.1 14.2002L28.4 48.9002H11.1V14.2002Z" fill="#930f50"/>
<path d="M30 44.9996L13 11.0996H47L30 44.9996Z" fill="#930f50"/>
<path d="M30 0C37.8 0 44.9001 3 50.2001 7.9H9.80005C15.1 3 22.2 0 30 0Z" fill="#930f50"/>
<path d="M48.9 48.9002H31.6L48.9 14.2002V48.9002Z" fill="#930f50"/>
<path d="M50.2001 52.0996C44.9001 56.9996 37.8 59.9996 30 59.9996C22.2 59.9996 15.1 56.9996 9.80005 52.0996H50.2001Z" fill="#930f50"/>
<path d="M52.1 50.1998V9.7998C57 15.0998 60 22.1998 60 29.9998C60 37.7998 57 44.8998 52.1 50.1998Z" fill="#930f50"/>
</svg>

<svg width="60" height="60" fill="none" xmlns="http://www.w3.org/2000/svg"><path d="M7.9 9.8v40.5C3 44.9 0 37.8 0 30c0-7.8 3-14.9 7.9-20.2ZM11.1 14.2l17.3 34.7H11.1V14.2ZM30 45 13 11.1h34L30 45ZM30 0c7.8 0 14.9 3 20.2 7.9H9.8C15.1 3 22.2 0 30 0ZM48.9 48.9H31.6l17.3-34.7v34.7ZM50.2 52.1C44.9 57 37.8 60 30 60c-7.8 0-14.9-3-20.2-7.9h40.4ZM52.1 50.2V9.8C57 15.1 60 22.2 60 30c0 7.8-3 14.9-7.9 20.2Z" fill="#930f50"/></svg>
